X:208
T:Aaf unnarn Weihadmm - Walzer/Waltz/Valse
C:Slg.Rittersberg
B:"Alt-Egerlnder Tnze", E. Baumann
Z:abc transcription Simon Wascher
N:please mail errors to simon.wascher@chello.at
M:3/4
L:1/4
K:F
C|FGA|G2F|EzE|
ABc|cBd|c2:|
|:d/c/|ABc|AcB/A/|GGF/G/|
ECC/E/|FcB/A/|G2E|F2:|
